dist/svgs/crypto-icons/icons/str.svg

<?xml version="1.0" encoding="UTF-8" standalone="yes"?>
<svg xmlns="http://www.w3.org/2000/svg" xmlns:xlink="http://www.w3.org/1999/xlink" width="512px" height="512px" viewBox="0 0 384 384" version="1.1">
  <g id="surface1">
    <path style=" stroke:none;fill-rule:nonzero;fill:rgb(0%,0%,0%);fill-opacity:1;" d="M 98.148438 301.714844 C 95.808594 300.046875 92.5625 300.59375 90.898438 302.933594 L 39.5 375.117188 C 38.402344 376.628906 38.199219 378.617188 38.96875 380.320312 C 39.742188 382.019531 41.367188 383.179688 43.226562 383.347656 C 45.089844 383.519531 46.898438 382.679688 47.96875 381.144531 L 99.363281 308.960938 C 101.03125 306.625 100.484375 303.378906 98.148438 301.714844 Z M 110.578125 325.398438 C 108.246094 323.726562 105 324.261719 103.328125 326.589844 L 74.738281 366.441406 C 73.933594 367.5625 73.609375 368.953125 73.832031 370.316406 C 74.058594 371.675781 74.8125 372.890625 75.933594 373.691406 C 78.265625 375.367188 81.511719 374.832031 83.1875 372.503906 L 111.773438 332.652344 C 113.445312 330.320312 112.910156 327.074219 110.578125 325.398438 Z M 345.765625 68.308594 C 345.765625 33.660156 333.929688 0.164062 333.929688 0.164062 C 333.929688 0.164062 289.75 -2.867188 252.789062 17.054688 C 215.828125 36.976562 201.824219 62.390625 194.894531 74.082031 C 187.964844 85.777344 173.527344 110.753906 173.527344 110.753906 C 173.527344 110.753906 141.910156 110.179688 116.933594 124.039062 C 91.957031 137.898438 76.652344 163.886719 76.652344 163.886719 C 76.652344 163.886719 93.257812 159.121094 109.136719 159.554688 C 125.019531 159.992188 140.898438 166.628906 140.898438 166.628906 C 140.898438 166.628906 137.144531 172.257812 137.867188 180.484375 C 138.1875 184.101562 143.015625 189.246094 149.667969 194.847656 C 148.621094 196.214844 147.601562 197.597656 146.605469 199 C 122.890625 232.503906 117.476562 269.429688 134.507812 281.488281 C 151.542969 293.542969 184.574219 276.160156 208.285156 242.664062 C 209.042969 241.59375 209.777344 240.519531 210.496094 239.445312 C 216.535156 243.246094 221.710938 245.761719 224.925781 245.597656 C 233.445312 245.164062 240.808594 236.214844 240.808594 236.214844 C 240.808594 236.214844 257.050781 256.789062 261.164062 267.183594 C 265.28125 277.578125 266.796875 296.203125 266.796875 296.203125 C 266.796875 296.203125 284.984375 274.761719 290.730469 243.09375 C 296.476562 211.421875 282.386719 189.003906 282.386719 189.003906 C 282.386719 189.003906 298.410156 169.371094 314.871094 149.449219 C 331.328125 129.523438 345.765625 102.957031 345.765625 68.308594 Z M 202.6875 234.886719 C 186.980469 256.148438 164.585938 266.242188 152.660156 257.4375 C 140.738281 248.628906 143.804688 224.253906 159.511719 202.992188 C 159.574219 202.902344 159.640625 202.824219 159.703125 202.738281 C 166.046875 207.476562 172.78125 212.191406 178.4375 216.292969 C 185.882812 221.691406 194.792969 228.640625 203.011719 234.421875 C 202.898438 234.578125 202.800781 234.730469 202.6875 234.886719 Z M 262.753906 125.914062 C 243.214844 125.914062 227.378906 110.074219 227.378906 90.542969 C 227.378906 71.003906 243.214844 55.167969 262.753906 55.167969 C 282.289062 55.167969 298.121094 71.003906 298.121094 90.542969 C 298.121094 110.074219 282.289062 125.914062 262.753906 125.914062 Z M 262.753906 125.914062 "/>
  </g>
</svg>

<svg xmlns="http://www.w3.org/2000/svg" viewBox="0 0 384 384"><path d="M98.148 301.715a5.195 5.195 0 00-7.25 1.219L39.5 375.117a5.21 5.21 0 00-.531 5.203 5.198 5.198 0 009 .825l51.394-72.184a5.193 5.193 0 00-1.215-7.246zm12.43 23.683a5.199 5.199 0 00-7.25 1.192l-28.59 39.851a5.2 5.2 0 00-.906 3.875 5.194 5.194 0 002.102 3.375 5.2 5.2 0 007.254-1.187l28.585-39.852a5.201 5.201 0 00-1.195-7.254zm235.188-257.09C345.766 33.66 333.93.165 333.93.165s-44.18-3.031-81.14 16.89c-36.962 19.923-50.966 45.337-57.895 57.028-6.93 11.695-21.368 36.672-21.368 36.672s-31.617-.574-56.593 13.285c-24.977 13.86-40.282 39.848-40.282 39.848s16.606-4.766 32.485-4.332c15.883.437 31.761 7.074 31.761 7.074s-3.753 5.629-3.03 13.855c.32 3.618 5.148 8.762 11.8 14.364a143.746 143.746 0 00-3.063 4.152c-23.714 33.504-29.128 70.43-12.097 82.488 17.035 12.055 50.066-5.328 73.777-38.824.758-1.07 1.492-2.144 2.211-3.219 6.04 3.801 11.215 6.317 14.43 6.153 8.52-.434 15.883-9.383 15.883-9.383s16.242 20.574 20.355 30.969c4.117 10.394 5.633 29.02 5.633 29.02s18.187-21.442 23.933-53.11c5.747-31.672-8.343-54.09-8.343-54.09s16.023-19.633 32.484-39.555c16.457-19.926 30.895-46.492 30.895-81.14zm-143.079 166.58c-15.707 21.261-38.101 31.355-50.027 22.55-11.922-8.808-8.855-33.183 6.852-54.445.062-.09.129-.168.191-.254 6.344 4.739 13.078 9.453 18.734 13.555 7.446 5.398 16.356 12.348 24.575 18.129-.114.156-.211.308-.325.465zm60.067-108.973c-19.54 0-35.375-15.84-35.375-35.371 0-19.54 15.836-35.375 35.375-35.375 19.535 0 35.367 15.836 35.367 35.375 0 19.531-15.832 35.371-35.367 35.371zm0 0"/></svg>
